public/svgs/aboutus/borde.svg

<svg width="273" height="137" viewBox="0 0 273 137" fill="none" xmlns="http://www.w3.org/2000/svg">
<g filter="url(#filter0_d_3336_2)">
<path d="M244.5 28.9503L29 48.4503V99.4503L44.1313 108.186L231.406 92.5439L244.5 79.4503V28.9503Z" fill="#111111"/>
<path d="M244.5 28.9503L29 48.4503V99.4503L44.1313 108.186L231.406 92.5439L244.5 79.4503V28.9503Z" stroke="#F2DD7C" stroke-width="2"/>
</g>
<g filter="url(#filter1_d_3336_2)">
<path d="M255 84.9512H253V26.2481L255 26.0674V84.9512Z" fill="#F2DD7C"/>
</g>
<g filter="url(#filter2_d_3336_2)">
<path d="M262 71.9522H260V25.6153L262 25.4346V71.9522Z" fill="#F2DD7C"/>
</g>
<g filter="url(#filter3_d_3336_2)">
<path d="M269 60.9532H267V24.9835L269 24.8018V60.9532Z" fill="#F2DD7C"/>
</g>
<g filter="url(#filter4_d_3336_2)">
<path d="M21 103.952H19V47.3926L21 47.212V103.952Z" fill="#F2DD7C"/>
</g>
<g filter="url(#filter5_d_3336_2)">
<path d="M14 92.9512H12V48.0255L14 47.8448V92.9512Z" fill="#F2DD7C"/>
</g>
<g filter="url(#filter6_d_3336_2)">
<path d="M7 83.9512H5V48.6592L7 48.4776V83.9512Z" fill="#F2DD7C"/>
</g>
<defs>
<filter id="filter0_d_3336_2" x="0.5" y="0.355713" width="272.5" height="136.353" filterUnits="userSpaceOnUse" color-interpolation-filters="sRGB">
<feFlood flood-opacity="0" result="BackgroundImageFix"/>
<feColorMatrix in="SourceAlpha" type="matrix" values="0 0 0 0 0 0 0 0 0 0 0 0 0 0 0 0 0 0 127 0" result="hardAlpha"/>
<feOffset/>
<feGaussianBlur stdDeviation="13.75"/>
<feComposite in2="hardAlpha" operator="out"/>
<feColorMatrix type="matrix" values="0 0 0 0 0.94902 0 0 0 0 0.866667 0 0 0 0 0.486275 0 0 0 0.4 0"/>
<feBlend mode="normal" in2="BackgroundImageFix" result="effect1_dropShadow_3336_2"/>
<feBlend mode="normal" in="SourceGraphic" in2="effect1_dropShadow_3336_2" result="shape"/>
</filter>
<filter id="filter1_d_3336_2" x="249" y="22.0674" width="10" height="66.8838" filterUnits="userSpaceOnUse" color-interpolation-filters="sRGB">
<feFlood flood-opacity="0" result="BackgroundImageFix"/>
<feColorMatrix in="SourceAlpha" type="matrix" values="0 0 0 0 0 0 0 0 0 0 0 0 0 0 0 0 0 0 127 0" result="hardAlpha"/>
<feOffset/>
<feGaussianBlur stdDeviation="2"/>
<feComposite in2="hardAlpha" operator="out"/>
<feColorMatrix type="matrix" values="0 0 0 0 0.94902 0 0 0 0 0.866667 0 0 0 0 0.486275 0 0 0 0.25 0"/>
<feBlend mode="normal" in2="BackgroundImageFix" result="effect1_dropShadow_3336_2"/>
<feBlend mode="normal" in="SourceGraphic" in2="effect1_dropShadow_3336_2" result="shape"/>
</filter>
<filter id="filter2_d_3336_2" x="256" y="21.4346" width="10" height="54.5176" filterUnits="userSpaceOnUse" color-interpolation-filters="sRGB">
<feFlood flood-opacity="0" result="BackgroundImageFix"/>
<feColorMatrix in="SourceAlpha" type="matrix" values="0 0 0 0 0 0 0 0 0 0 0 0 0 0 0 0 0 0 127 0" result="hardAlpha"/>
<feOffset/>
<feGaussianBlur stdDeviation="2"/>
<feComposite in2="hardAlpha" operator="out"/>
<feColorMatrix type="matrix" values="0 0 0 0 0.94902 0 0 0 0 0.866667 0 0 0 0 0.486275 0 0 0 0.25 0"/>
<feBlend mode="normal" in2="BackgroundImageFix" result="effect1_dropShadow_3336_2"/>
<feBlend mode="normal" in="SourceGraphic" in2="effect1_dropShadow_3336_2" result="shape"/>
</filter>
<filter id="filter3_d_3336_2" x="263" y="20.8018" width="10" height="44.1514" filterUnits="userSpaceOnUse" color-interpolation-filters="sRGB">
<feFlood flood-opacity="0" result="BackgroundImageFix"/>
<feColorMatrix in="SourceAlpha" type="matrix" values="0 0 0 0 0 0 0 0 0 0 0 0 0 0 0 0 0 0 127 0" result="hardAlpha"/>
<feOffset/>
<feGaussianBlur stdDeviation="2"/>
<feComposite in2="hardAlpha" operator="out"/>
<feColorMatrix type="matrix" values="0 0 0 0 0.94902 0 0 0 0 0.866667 0 0 0 0 0.486275 0 0 0 0.25 0"/>
<feBlend mode="normal" in2="BackgroundImageFix" result="effect1_dropShadow_3336_2"/>
<feBlend mode="normal" in="SourceGraphic" in2="effect1_dropShadow_3336_2" result="shape"/>
</filter>
<filter id="filter4_d_3336_2" x="15" y="43.212" width="10" height="64.7402" filterUnits="userSpaceOnUse" color-interpolation-filters="sRGB">
<feFlood flood-opacity="0" result="BackgroundImageFix"/>
<feColorMatrix in="SourceAlpha" type="matrix" values="0 0 0 0 0 0 0 0 0 0 0 0 0 0 0 0 0 0 127 0" result="hardAlpha"/>
<feOffset/>
<feGaussianBlur stdDeviation="2"/>
<feComposite in2="hardAlpha" operator="out"/>
<feColorMatrix type="matrix" values="0 0 0 0 0.94902 0 0 0 0 0.866667 0 0 0 0 0.486275 0 0 0 0.25 0"/>
<feBlend mode="normal" in2="BackgroundImageFix" result="effect1_dropShadow_3336_2"/>
<feBlend mode="normal" in="SourceGraphic" in2="effect1_dropShadow_3336_2" result="shape"/>
</filter>
<filter id="filter5_d_3336_2" x="8" y="43.8448" width="10" height="53.1064" filterUnits="userSpaceOnUse" color-interpolation-filters="sRGB">
<feFlood flood-opacity="0" result="BackgroundImageFix"/>
<feColorMatrix in="SourceAlpha" type="matrix" values="0 0 0 0 0 0 0 0 0 0 0 0 0 0 0 0 0 0 127 0" result="hardAlpha"/>
<feOffset/>
<feGaussianBlur stdDeviation="2"/>
<feComposite in2="hardAlpha" operator="out"/>
<feColorMatrix type="matrix" values="0 0 0 0 0.94902 0 0 0 0 0.866667 0 0 0 0 0.486275 0 0 0 0.25 0"/>
<feBlend mode="normal" in2="BackgroundImageFix" result="effect1_dropShadow_3336_2"/>
<feBlend mode="normal" in="SourceGraphic" in2="effect1_dropShadow_3336_2" result="shape"/>
</filter>
<filter id="filter6_d_3336_2" x="1" y="44.4776" width="10" height="43.4736" filterUnits="userSpaceOnUse" color-interpolation-filters="sRGB">
<feFlood flood-opacity="0" result="BackgroundImageFix"/>
<feColorMatrix in="SourceAlpha" type="matrix" values="0 0 0 0 0 0 0 0 0 0 0 0 0 0 0 0 0 0 127 0" result="hardAlpha"/>
<feOffset/>
<feGaussianBlur stdDeviation="2"/>
<feComposite in2="hardAlpha" operator="out"/>
<feColorMatrix type="matrix" values="0 0 0 0 0.94902 0 0 0 0 0.866667 0 0 0 0 0.486275 0 0 0 0.25 0"/>
<feBlend mode="normal" in2="BackgroundImageFix" result="effect1_dropShadow_3336_2"/>
<feBlend mode="normal" in="SourceGraphic" in2="effect1_dropShadow_3336_2" result="shape"/>
</filter>
</defs>
</svg>

<svg xmlns="http://www.w3.org/2000/svg" width="273" height="137" fill="none" viewBox="0 0 273 137"><g filter="url(#a)"><path fill="#111" d="M244.5 28.95 29 48.45v51l15.131 8.736 187.275-15.642L244.5 79.45z"/><path stroke="#f2dd7c" stroke-width="2" d="M244.5 28.95 29 48.45v51l15.131 8.736 187.275-15.642L244.5 79.45z"/></g><g filter="url(#b)"><path fill="#f2dd7c" d="M255 84.951h-2V26.248l2-.18z"/></g><g filter="url(#c)"><path fill="#f2dd7c" d="M262 71.952h-2V25.615l2-.18z"/></g><g filter="url(#d)"><path fill="#f2dd7c" d="M269 60.953h-2v-35.97l2-.181z"/></g><g filter="url(#e)"><path fill="#f2dd7c" d="M21 103.952h-2v-56.56l2-.18z"/></g><g filter="url(#f)"><path fill="#f2dd7c" d="M14 92.951h-2V48.026l2-.181z"/></g><g filter="url(#g)"><path fill="#f2dd7c" d="M7 83.951H5V48.66l2-.181z"/></g><defs><filter id="a" width="272.5" height="136.353" x=".5" y=".356" color-interpolation-filters="sRGB" filterUnits="userSpaceOnUse"><feFlood flood-opacity="0" result="BackgroundImageFix"/><feColorMatrix in="SourceAlpha" result="hardAlpha" values="0 0 0 0 0 0 0 0 0 0 0 0 0 0 0 0 0 0 127 0"/><feOffset/><feGaussianBlur stdDeviation="13.75"/><feComposite in2="hardAlpha" operator="out"/><feColorMatrix values="0 0 0 0 0.94902 0 0 0 0 0.866667 0 0 0 0 0.486275 0 0 0 0.4 0"/><feBlend in2="BackgroundImageFix" result="effect1_dropShadow_3336_2"/><feBlend in="SourceGraphic" in2="effect1_dropShadow_3336_2" result="shape"/></filter><filter id="b" width="10" height="66.884" x="249" y="22.067" color-interpolation-filters="sRGB" filterUnits="userSpaceOnUse"><feFlood flood-opacity="0" result="BackgroundImageFix"/><feColorMatrix in="SourceAlpha" result="hardAlpha" values="0 0 0 0 0 0 0 0 0 0 0 0 0 0 0 0 0 0 127 0"/><feOffset/><feGaussianBlur stdDeviation="2"/><feComposite in2="hardAlpha" operator="out"/><feColorMatrix values="0 0 0 0 0.94902 0 0 0 0 0.866667 0 0 0 0 0.486275 0 0 0 0.25 0"/><feBlend in2="BackgroundImageFix" result="effect1_dropShadow_3336_2"/><feBlend in="SourceGraphic" in2="effect1_dropShadow_3336_2" result="shape"/></filter><filter id="c" width="10" height="54.518" x="256" y="21.435" color-interpolation-filters="sRGB" filterUnits="userSpaceOnUse"><feFlood flood-opacity="0" result="BackgroundImageFix"/><feColorMatrix in="SourceAlpha" result="hardAlpha" values="0 0 0 0 0 0 0 0 0 0 0 0 0 0 0 0 0 0 127 0"/><feOffset/><feGaussianBlur stdDeviation="2"/><feComposite in2="hardAlpha" operator="out"/><feColorMatrix values="0 0 0 0 0.94902 0 0 0 0 0.866667 0 0 0 0 0.486275 0 0 0 0.25 0"/><feBlend in2="BackgroundImageFix" result="effect1_dropShadow_3336_2"/><feBlend in="SourceGraphic" in2="effect1_dropShadow_3336_2" result="shape"/></filter><filter id="d" width="10" height="44.151" x="263" y="20.802" color-interpolation-filters="sRGB" filterUnits="userSpaceOnUse"><feFlood flood-opacity="0" result="BackgroundImageFix"/><feColorMatrix in="SourceAlpha" result="hardAlpha" values="0 0 0 0 0 0 0 0 0 0 0 0 0 0 0 0 0 0 127 0"/><feOffset/><feGaussianBlur stdDeviation="2"/><feComposite in2="hardAlpha" operator="out"/><feColorMatrix values="0 0 0 0 0.94902 0 0 0 0 0.866667 0 0 0 0 0.486275 0 0 0 0.25 0"/><feBlend in2="BackgroundImageFix" result="effect1_dropShadow_3336_2"/><feBlend in="SourceGraphic" in2="effect1_dropShadow_3336_2" result="shape"/></filter><filter id="e" width="10" height="64.74" x="15" y="43.212" color-interpolation-filters="sRGB" filterUnits="userSpaceOnUse"><feFlood flood-opacity="0" result="BackgroundImageFix"/><feColorMatrix in="SourceAlpha" result="hardAlpha" values="0 0 0 0 0 0 0 0 0 0 0 0 0 0 0 0 0 0 127 0"/><feOffset/><feGaussianBlur stdDeviation="2"/><feComposite in2="hardAlpha" operator="out"/><feColorMatrix values="0 0 0 0 0.94902 0 0 0 0 0.866667 0 0 0 0 0.486275 0 0 0 0.25 0"/><feBlend in2="BackgroundImageFix" result="effect1_dropShadow_3336_2"/><feBlend in="SourceGraphic" in2="effect1_dropShadow_3336_2" result="shape"/></filter><filter id="f" width="10" height="53.106" x="8" y="43.845" color-interpolation-filters="sRGB" filterUnits="userSpaceOnUse"><feFlood flood-opacity="0" result="BackgroundImageFix"/><feColorMatrix in="SourceAlpha" result="hardAlpha" values="0 0 0 0 0 0 0 0 0 0 0 0 0 0 0 0 0 0 127 0"/><feOffset/><feGaussianBlur stdDeviation="2"/><feComposite in2="hardAlpha" operator="out"/><feColorMatrix values="0 0 0 0 0.94902 0 0 0 0 0.866667 0 0 0 0 0.486275 0 0 0 0.25 0"/><feBlend in2="BackgroundImageFix" result="effect1_dropShadow_3336_2"/><feBlend in="SourceGraphic" in2="effect1_dropShadow_3336_2" result="shape"/></filter><filter id="g" width="10" height="43.474" x="1" y="44.478" color-interpolation-filters="sRGB" filterUnits="userSpaceOnUse"><feFlood flood-opacity="0" result="BackgroundImageFix"/><feColorMatrix in="SourceAlpha" result="hardAlpha" values="0 0 0 0 0 0 0 0 0 0 0 0 0 0 0 0 0 0 127 0"/><feOffset/><feGaussianBlur stdDeviation="2"/><feComposite in2="hardAlpha" operator="out"/><feColorMatrix values="0 0 0 0 0.94902 0 0 0 0 0.866667 0 0 0 0 0.486275 0 0 0 0.25 0"/><feBlend in2="BackgroundImageFix" result="effect1_dropShadow_3336_2"/><feBlend in="SourceGraphic" in2="effect1_dropShadow_3336_2" result="shape"/></filter></defs></svg>
